X:6483
T:Graf Spee, The
T:Winnie Green's
T:Western Lasses, The
S:from Matt Molloy/Paul Brady/Tommy Peoples album
N:transcribed by Alan Ng
D:Green Linnet 3018
Z: id:ng-reels-1 transcribed by Alan Ng (agng@students.wisc.edu) April 1995.
E:10
M:C|
K:D
FEDE FA A2|BAdA BAdA|FEDE FA A2|BAdA FE E2:|\
fddc dBAF|Adfd dBBA|f2 ba f2 fe|dBAF FE E2|\
f3 e dBAF|Adfd dBBA|fbba fafe|dBAF FE E2|:\
faaf afed|fbba bbba|f3 e d3 e|fbaf feeg::\
fddc dBAF|Adfd dBAF|ABde fded|BAdA FE E2::\
fada fada|gbeb gbeb|ff(3gfe fedB|ABde fe e2|\
f2 bf afed|fded dBAF|ABde fded|BAdA FE E2|]**
%\coda
%f2bf afeD|d8||
\medskip
